include/LD/assets/icons/custom/custom88.svg

<?xml version="1.0"?><svg xmlns="http://www.w3.org/2000/svg" width="100" height="100" viewBox="0 0 100 100"><g fill="#fff"><path d="m78.1 70h-56.2c-1 0-1.9 0.8-1.9 1.8v0.1c0 4.5 5.6 8.1 10 8.1h40c4.4 0 10-3.6 10-8.1v-0.1c0-1-0.9-1.8-1.9-1.8z m-55.1-6h18c1.1 0 2-1.1 2-2.2v-34.4c0-0.5-0.7-0.7-0.9-0.2l-20 35.2c-0.3 0.7 0.1 1.6 0.9 1.6z m28 0h25c1.2 0 2.1-1.1 2-2.3-0.9-7.2-2.1-29.6-27.6-41.6-0.6-0.3-1.4 0.1-1.4 0.9v40.8c0 1.1 0.9 2.2 2 2.2z"></path></g></svg>

<svg xmlns="http://www.w3.org/2000/svg" x="0px" y="0px"
	 width="100px" height="100px" viewBox="0 0 100 100" enable-background="new 0 0 100 100" xml:space="preserve">
<g>
	<path fill="#FFFFFF" d="M78.1,70H21.9c-1,0-1.9,0.8-1.9,1.8V71.9c0,4.5,5.6,8.1,10,8.1h40c4.4,0,10-3.6,10-8.1V71.8
		C80,70.8,79.1,70,78.1,70z"/>
	<path fill="#FFFFFF" d="M23,64h18c1.1,0,2-1.1,2-2.2V27.4c0-0.5-0.7-0.7-0.9-0.2l-20,35.2C21.8,63.1,22.2,64,23,64z"/>
	<path fill="#FFFFFF" d="M51,64h25c1.2,0,2.1-1.1,2-2.3c-0.9-7.2-2.1-29.6-27.6-41.6C49.8,19.8,49,20.2,49,21v40.8
		C49,62.9,49.9,64,51,64z"/>
</g>
</svg>
